X:214
T:Reel 214
M:4/4
K:Gmaj
L:1/8
D2|GBAG FDD2|GFGB cBAc|BAGF GABc|dcde fdcA|GBAG F2FA|GFGA Bdcd|gefd cABA|GBAF G2|Bc|dggf g2ga|baga gdde|=fefd f2ed|cABG FAdc|BGG2 G3B|dgga g3a|fage fedc|BGAF G2|Bc|dggf g2dB|GcAG F2Ac|dBAF GBdg|gfdg fdcA|dgga b2ag| (3fef ag fddc|BdcA BGAF|GFGF G2|
